dist/svgs/core-ui-icons/free/cil-chevron-double-left.svg

<svg xmlns="http://www.w3.org/2000/svg" viewBox="0 0 512 512"><path d="M276.055 143.463L196.592 64 87.571 173.021l-.041-.041-68.149 68.148-4.3 4.328-7.085 7 68.217 68.216 11.342 11.26 109.037 109.035 79.463-79.467-109.021-109.016zm-79.463 252.249l-97.707-97.707-11.355-11.273-34.182-34.181.041-.041-.067-.068 34.208-34.207.041.041 109.021-109.021 34.208 34.208-109.021 109.021L230.8 361.5z"/><path d="M497.263 143.463L417.8 64 308.713 173.088l-.042-.041-68.081 68.081-11.19 11.278-.119.119 68.148 68.148 11.288 11.2L417.8 440.967l79.463-79.467-109.021-109.016zM452.008 361.5L417.8 395.712l-97.707-97.707-11.28-11.2-34.325-34.324 34.316-34.316.042.041L417.8 109.255l34.207 34.208-109.02 109.021z"/></svg>

<svg xmlns="http://www.w3.org/2000/svg" viewBox="0 0 512 512">
  <path fill="var(--ci-primary-color, currentColor)" d="M276.055,143.463,196.592,64,87.571,173.021l-.041-.041L19.381,241.128l-4.3,4.328-7.085,7,68.217,68.216,11.342,11.26L196.592,440.967,276.055,361.5,167.034,252.484ZM196.592,395.712,98.885,298.005,87.53,286.732,53.348,252.551l.041-.041-.067-.068L87.53,218.235l.041.041L196.592,109.255,230.8,143.463,121.779,252.484,230.8,361.5Z" class="ci-primary"/>
  <path fill="var(--ci-primary-color, currentColor)" d="M497.263,143.463,417.8,64,308.713,173.088l-.042-.041L240.59,241.128,229.4,252.406l-.119.119,68.148,68.148,11.288,11.2L417.8,440.967,497.263,361.5,388.242,252.484ZM452.008,361.5,417.8,395.712l-97.707-97.707-11.28-11.2-34.325-34.324,34.316-34.316.042.041L417.8,109.255l34.207,34.208L342.987,252.484Z" class="ci-primary"/>
</svg>
